X:57
T:Reel 57
M:4/4
K:Amaj
L:1/8
C>B, (3CB,A, B,2E2|A,C (3CB,C DCB,A,|G,B,B,C DEFD||EGAB AGFE:||2A,CDE FGA2CE|FGFG E2EG|FBBG F2 (3EFG |AFGE F2EC|B,A,B,C B,2CE|F>G (3FGF E2EG|AGBG AGFE|FGAF GEFE|GEFG A2GA|
